X: 2
T: Miss Sarah Drummond Of Perth
R: strathspey
M: 4/4
L: 1/8
K: Edor
a |!segno! AAe>d B>d e2 | dgB>g d<gB<G | AAe>d B<de>a | g>eg>B A2 Aa |
AAe>d B<d e2 | d<gB>g d<gB>G | AAe>d B>de>a | g>eg>B A2 A |
^g |a2 e>a c<ae>f | g2 d>g B>gd>g | a2 e>a c>ae>a | g>eg>B A2 A>^g |
a2 e>a c>ae>f | g2 d>g B>gd>g | aae>a bbe>g | aegB A/B/c/d/ e>a !D.S.! |]


Tune 1556	Setting 14953

